packages/admin/admin-icons/icons/home.svg

<svg xmlns="http://www.w3.org/2000/svg" width="16" height="16" viewBox="0 0 16 16"><path fill="#242424" fill-rule="evenodd" d="M7.64644661,0.146446609 C7.82001296,-0.0271197425 8.08943736,-0.0464048927 8.2843055,0.0885911588 L8.35355339,0.146446609 L15.3535534,7.14644661 C15.4285679,7.22146116 15.477285,7.31785732 15.4937713,7.42131063 L15.5,7.5 L15.5,15.5 C15.5,15.7761424 15.2761424,16 15,16 C14.7545401,16 14.5503916,15.8231248 14.5080557,15.5898756 L14.5,15.5 L14.5,7.707 L8,1.207 L1.5,7.706 L1.5,15 L5.5,15 L5.5,10.5 C5.5,10.2545401 5.67687516,10.0503916 5.91012437,10.0080557 L6,10 L10,10 C10.2454599,10 10.4496084,10.1768752 10.4919443,10.4101244 L10.5,10.5 L10.5,15 L12,15 C12.2454599,15 12.4496084,15.1768752 12.4919443,15.4101244 L12.5,15.5 C12.5,15.7454599 12.3231248,15.9496084 12.0898756,15.9919443 L12,16 L10,16 C9.75454011,16 9.55039163,15.8231248 9.50805567,15.5898756 L9.5,15.5 L9.5,11 L6.5,11 L6.5,15.5 C6.5,15.7454599 6.32312484,15.9496084 6.08987563,15.9919443 L6,16 L1,16 C0.754540111,16 0.55039163,15.8231248 0.508055669,15.5898756 L0.5,15.5 L0.5,7.5 C0.5,7.3939134 0.533714189,7.29130283 0.595209177,7.20649276 L0.646446609,7.14644661 L7.64644661,0.146446609 Z"/></svg>

<svg width="16" height="16" fill="none" viewBox="0 0 16 16">
  <path fill="#242424" fill-rule="evenodd" d="M7.647.146A.5.5 0 0 1 8.284.09l.07.057 7 7a.5.5 0 0 1 .14.275l.006.079v8a.5.5 0 0 1-.992.09l-.008-.09V7.707L8 1.207 1.5 7.706V15h4v-4.5a.5.5 0 0 1 .41-.492L6 10h4a.5.5 0 0 1 .492.41l.008.09V15H12a.5.5 0 0 1 .492.41l.008.09a.5.5 0 0 1-.41.492L12 16h-2a.5.5 0 0 1-.492-.41L9.5 15.5V11h-3v4.5a.5.5 0 0 1-.41.492L6 16H1a.5.5 0 0 1-.492-.41L.5 15.5v-8a.5.5 0 0 1 .095-.294l.052-.06 7-7Z" clip-rule="evenodd"/>
</svg>
